!!!COM:	Bach, Johann Sebastian
!!!CDT:	1685/02/21/-1750/07/28/
!!!OTL@@DE:	Seelenbr&auml;utigam
!!!SCT:	BWV 409
!!!PC#:	141
!!!AGN:	chorale
**kern	**kern	**kern	**kern
*ICvox	*ICvox	*ICvox	*ICvox
*Ibass	*Itenor	*Ialto	*Isoprn
*I"Bass	*I"Tenor	*I"Alto	*I"Soprano
*clefF4	*clefGv2	*clefG2	*clefG2
*k[f#c#g#]	*k[f#c#g#]	*k[f#c#g#]	*k[f#c#g#]
*A:	*A:	*A:	*A:
*M4/4	*M4/4	*M4/4	*M4/4
*met(c)	*met(c)	*met(c)	*met(c)
*MM100	*MM100	*MM100	*MM100
=1-	=1-	=1-	=1-
8AAL	4c#	4e	4a
8BBJ	.	.	.
8C#L	4c#	4e	4a
8DJ	.	.	.
4E	4B	4e	4g#
4AA	4c#	8eL	4a
.	.	8f#J	.
=2	=2	=2	=2
2E;	2e;	2g#;	2b;
4F#	8c#L	4f#	4a
.	8d	.	.
4G#	8c#	4e	4b
.	[8BJ	.	.
=3	=3	=3	=3
4A	8B]	4e	4cc#
.	4A	.	.
4E	.	4e	4b
.	8G#	.	.
2AA;	2c#;	2e;	2a;
=4	=4	=4	=4
8AL	4e	4a	4cc#
8G#J	.	.	.
4F#	4f#	4a	4dd
4C#	4e	[4a	4ee
8F#L	8f#L	8aL]	4dd
8G#J	8eJ	[8bJ	.
=5	=5	=5	=5
4A	4e	8bL]	4cc#
.	.	8aJ	.
8EL	4e	8g#L	4b
8G#J	.	[8bJ	.
4A	2e	8bL]	2cc#
.	.	16aL	.
.	.	16g#JJ	.
4AA	.	[4a	.
=6	=6	=6	=6
2E;	2e;	4a]	2b;
.	.	4g#;	.
4F#	4c#	4f#	4a
4E	4e	4g#	4b
=7	=7	=7	=7
4A	[4e	4a	4cc#
4E	8eL]	[4g#	4b
.	8dJ	.	.
4F#	4c#	8g#]	4a
.	.	4f#	.
4C#	4c#	.	4g#
.	.	8e#	.
=8	=8	=8	=8
8FF#L	2c#	8f#L	4.a
8GG#J	.	8e#J	.
8AAL	.	2f#	.
8BBJ	.	.	8g#
2C#;	2c#;	.	2g#;
.	.	4e#;	.
=9	=9	=9	=9
4F#	4c#	4f#	4a
8C#L	4c#	4enX	4a
8DJ	.	.	.
4E	4B	4e	4g#
8C#L	[4A	4e	4a
8AAJ	.	.	.
=10	=10	=10	=10
2E;	4A]	2e;	2b;
.	4G#;	.	.
4F#	8AL	8c#L	4a
.	8d	8f#J	.
4G#	8c#	[4e	4b
.	8BJ	.	.
=11	=11	=11	=11
4A	8AL	8eL]	4cc#
.	8eJ	8aJ	.
4E	8.eL	4g#	8bL
.	.	.	8aJ
.	16dJk	.	.
2AA;	2c#;	2e;	2a;
==	==	==	==
*-	*-	*-	*-
!!!hum2abc: -Q ''
!!!title: @{PC#}. @{OTL@@DE}
!!!YOR1: 371 vierstimmige Choralges&auml;nge von Johann Sebastian Bach, 
!!!YOR2: 4th ed. by Alfred D&ouml;rffel (Leipzig: Breitkopf und H&auml;rtel, 
!!!YOR2: c.1875). 178 pp. Plate "V.A.10".  reprint: J.S. Bach, 371 Four-Part 
!!!YOR4: Chorales (New York: Associated Music Publishers, Inc., c.1940).
!!!SMS: B&H, 4th ed, Alfred D&ouml;rffel, c.1875, plate V.A.10
!!!EED:  Craig Stuart Sapp
!!!EEV:  2009/05/22
